X: 140
T: No_96_Song_for_Leaders_of_the_Ceremony_(a).krn
N: Derived from No_96_Song_for_Leaders_of_the_Ceremony_(a).krn
%%abc-version 2.0
%%abcx-abcm2ps-target-version 5.9.1 (29 Sep 2008)
%%abc-creator hum2abc beta
%%abcx-conversion-date 2019/03/15 08:35:45
%%humdrum-veritas 4205638954
%%humdrum-veritas-data 2660749419
%%linebreak <none>
%%barnumbers 0
L: 1/8
M: 2/4
K: F clef=bass
[K:clef=bass][M:2/4]z2z A, | 
C2CA, ||  
[M:3/4]C2A,A, z A, | 
C2A,G, F,G, | 
F,/F,/D,C,3A,, | 
C,C, C,A,, A,,3/A,,/ | 
A,,4A,, z ||  
[M:2/4]A,A, A,A, ||  
[M:3/4]CA, A,G, F,G, | 
F,/F,/D,C,3A,, | 
C,C, C,A,, A,,3/A,,/ | 
A,,4A,, z | 
A,A,A,2A,C ||  
[M:5/8]A,A,G,F,G, ||  
[M:3/4]F,/F,/D,C,3A,, | 
C,C, C,A,, A,,3/A,,/ | 
A,,4A,, z |]  



